X:90
T:Eileen Curran
Z: id:dc-reel-82
M:C
L:1/8
K:G Dorian
A|BAGF DGGB|AFcF dFcA|BAGF DFGA|B2Bc dgga|!
bgaf gdde|f2cB AFFA|BAGF DFGA|BdcA BGG:|!
z|g2g^f gbag|f2fe fgaf|dgg^f g3a|bgaf dgga|!
bgaf gdde|f2cB AFFA|BAGF DFGA|BdcA BGG:|!